X:1
T:Es hat ausz lauter
T:André Vierendeels
T:Melody by Georg Vogler (1625) (Soprano voice)
T:Source : Catechismus---Würzburg---J.Volmari---1652. Editor : André Vierendeels (28/09/17).
T:Notes : Original clef : C1, other voices supplied editorially Original note values have been halved Editorial accidentals above the staff Text Middle German
T:Es hat ausz lauter
T:©
T:©
C:André Vierendeels
Z:©
%%score [ 1 2 3 ]
L:1/8
Q:1/4=80
M:2/2
K:C
V:1 treble nm="Soprano" snm="S"
V:2 treble-8 nm="Tenor" snm="T"
V:3 bass nm="Bass" snm="B"
V:1
"^1)" D4 C2 D2 | F2 G2 F2 E2 | D4 z4 | A4 G2 E2 | F2 D2 F2 E2 | D4 z4 | A4 c2 d2 | A4 F4 | %8
w: Es hat ausz|lau- ter Gü- tig-|keit|En- gel und|Men- schen in der|Zeit,|die hei- lig-|ste Drey-|
w: O Gött- lichs|Bild, von Ju- gend|auff,|zum Ziel dei-|ner E- scha- ffung|lauff.|Mit al- len|Eng- len|
 G2 G2 A4 | z4 A4 | c2 d2 A4 | F4 G2 G2 | !fermata!G4 A4 | c2 A2 G2 F2 | F2 E2 F4 | z4 _B4 | %16
w: fal- tig- keit,|er-|scha- ffen zu|der Se- lig-|keit, drumb,|O Mensch be- *|ken- ne frey,|wie|
w: Mensch er- weisz,|deim|Lie- ben Gott|Dienst, Ehr, und|Preysz, zu|sol- chem End, danck-|bar an- wend,|Glaub,|
 G4 A4 | F2 D2 G4 | E4 !fermata!D4 |] %19
w: grosz dein|Gott und Schöp-|ffer sey.|
w: Hoff- nung,|Lieb und Sa-|cra- ment.|
V:2
"^2)""^1)" A4 G2 F2 | A2 d2 A2 c2 | d4 z4 | e4 B2 c2 | A2 F2 A2 c2 | B4 z4 | A2 (F2 E2) G2 | %7
w: Es hat ausz|lau- ter Gü- tig-|keit|En- gel und|Men- schen in der|Zeit,|die hei- * lig-|
w: Sperz auff dein|Hertz, O Jun- gens|Blut|nach Chri- sti|Lehr, mit sei- nem|Muth:|Ein Zweig _ so|
 E4 A4 | E2 D2 E4 | z4 F4 | A2 A2 F4 | (c2 A2) E2 D2 | E4 E4 | G2 c2 B2 A2 | A2 B2 A4 | z4 F4 | %16
w: ste Drey|fal- tig- keit,|er|scha- ffen zu|der _ Se- lig-|keit, drumb,|O Mensch be- *|ken- ne frey,|wie|
w: jung, lengt|sich gar leicht,|der|al- te Storz,|von Krümb _ nicht|weicht: Chri-|sti Lehr ist ein|thew- rer Schatz,|macht|
 D2 E2 E4 | A4 B4 | c4 F4 |] %19
w: grosz dein Gott|und Schöp-|ffer sey.|
w: in dem Him-|mel gu-|ten Plattz.|
V:3
"^3)""^1)""^2)" D,4 E,2 D,2 | D,2 G,,2 D,2 A,,2 | D,4 z4 | A,,4 B,,2 C,2 | D,2 A,,2 D,2 A,,2 | %5
w: Es hat ausz|lau- ter Gü- tig-|keit|En- gel und|Men- schen in der|
w: Wi- der al-|te am Jüng- sten|Tag|wird disz nicht|seyn die gring- ste|
 G,,4 z4 | D,4 C,2 B,,2 | A,,4 F,,4 | C,2 B,,2 A,,4 | z4 D,4 | F,2 D,2 D,4 | F,4 C,2 B,,2 | %12
w: Zeit,|die hei- lig-|ste Drey-|fal- tig- keit|er-|scha- ffen zu|der Se- lig-|
w: Klag,|wann ihr Ge-|sind mit|Weib und Kind|so|ü- bel un-|der- wie- sen|
 C,4 A,,4 | C,2 E,2 E,2 F,2 | D,2 E,2 D,4 | z4 D,4 |"^-natural" B,,2 E,2 A,,4 | D,4 G,,4 | %18
w: keit, drumb,|O Mensch be- *|ken- ne frey,|wie|grosz dein Gott|und Schöp-|
w: sind, und|nichts wis- sen von|Chri- sti Lehr,|ausz|der doch kompt|all Zucht|
 A,,4 D,4 |] %19
w: ffer sey.|
w: und Ehr.|

